X:0035
M:2/4
L:1/8
Q:1/4=104
K:G
d|BGdG |eGdG|BGdG|cAAd| BGdG        |eGdG|BdAc|BGG:|
d|g>agd|B2Gd|BGdG|cAA2|(b/a/g/f/) gd|B2Gd|BdAc|BGG:|

